!!!ONB: MCCC : IFM0075_03 : Extracted Monophonic Melody
!!!COM: Mendelssohn, Felix
!!!OPR: Lieder ohne Worte
!!!OMV: 3
!!!SCT: Op.19b
!!!ODT: 1829///
**kern
*staff1
*clefG2
*k[f#c#g#]
*A:
*M6/8
4.e
=2
8e
8e
16a
16cc#
4.ee
=3
8ee
8ee
16aa
16ccc#
8eee
8eee
8eee
=4
8eee
8eee
8eee
8eee
8eee[
8eee]
=5
*M3/8
4.eee
=6
8r
16r
16a
8a
=7
*M6/8
8a
8b
8cc#
4cc#
8cc#
=8
8cc#
8dd
8ee
8.ee
16ff#
8ff#
=9
8.aa
16aa
8aa
8aa
8aa
8gg#
=10
4.ff#
8.ff#
16ff#[
8ff#]
=11
8a
8b
8cc#
4cc#
8cc#
=12
8cc#
8dd
8ee
8.ee
16ff#
8ff#
=13
8.aa
16aa
8aa
8aa
8aa
8gg#
=14
8ccc#
8ccc#
8aa
8.gg#
16ff#
8ff#
=15
8.aa
16aa
8aa
8aa
8aa
8gg#
=16
8ccc#
8ccc#
8aa
8gg#
8bb
8bb
=17
4.bb
4.bb
=18
4.bb[
8bb]
8ee
8ee
=19
8ee
8ff#
8gg#
4gg#
8gg#
=20
8gg#
8ccc#
8eee
8.eee
16eee[
8eee]
=21
8ee
8ff#
8gg#
4gg#
8gg#
=22
8gg#
8ccc#
8eee
8.eee
16eee[
8eee]
=23
8ee
8ff#
8gg#
8gg#
8bb
8eee
=24
4.eee[
8eee]
8ddd#
8ccc#
=25
8bb
8aa
8gg#
8aa
8ff#
8dd#
=26
4.bbb[
8bbb]
8aaa
8ggg#
=27
8fff#
8eee
8ddd#
8ccc#
8bb
8aa#
=28
8gg#
8ff#
8ee
8dd#
8ee
8cc#
=29
8b
8ee
8g#
8b
8a
8f#
=30
*M3/8
8e
8r
8r
=31
8r
16r
16a
8a
=32
*M6/8
8a
8b
8cc#
4cc#
8cc#
=33
8cc#
8dd
8ee
8.ee
16ff#
8ff#
=34
8.aa
16aa
8aa
8aa
8aa
8gg#
=35
4.ff#
8.ff#
16ff#[
8ff#]
=36
8a
8b
8cc#
4cc#
8cc#
=37
8cc#
8dd
8ee
8.ee
16ff#
8ff#
=38
8.aa
16aa
8aa
8aa
8aa
8gg#
=39
8ccc#
8ccc#
8aa
8.gg#
16ff#
8ff#
=40
8.aa
16aa
8aa
8aa
8aa
8gg#
=41
8ccc#
8ccc#
8aa
8gg#
8bb
8bb
=42
4.bb
4.bb
=43
4.bb[
8bb]
8ee
8ee
=44
8ee
8ff#
8gg#
4gg#
8gg#
=45
8gg#
8ccc#
8eee
8.eee
16eee[
8eee]
=46
8ee
8ff#
8gg#
4gg#
8gg#
=47
8gg#
8ccc#
8eee
8.eee
16eee[
8eee]
=48
8ee
8ff#
8gg#
8gg#
8bb
8eee
=49
4.eee[
8eee]
8ddd#
8ccc#
=50
8bb
8aa
8gg#
8aa
8ff#
8dd#
=51
4.bbb[
8bbb]
8aaa
8ggg#
=52
8fff#
8eee
8ddd#
8ccc#
8bb
8aa#
=53
8gg#
8ff#
8ee
8dd#
8ee
8cc#
=54
8b
8ee
8g#
8b
8a
8f#
=55
*M3/8
8e
8r
8r
=56
4.gg#
=57
*M6/8
4.gg#
4.gg#
=58
8gg#
8aa
8gg#
8gg#
8gg#
8gg#
=59
4.gg#
4.gg#
=60
4.gg#
8r
8gg#
8gg#
=61
8gg#
8ff#
8gg#
8bb
8ccc#[
8ccc#]
=62
4.gg#
8r
8gg#
8gg#
=63
8gg#
8ff#
8gg#
8aa
8ccc#[
8ccc#]
=64
4.gg#
4.aa
=65
4.aa
4.gg#
=66
4.ff#
4.ee
=67
4.a
4.g#
=68
4.f#
8e
8cc#
8cc#
=69
8dd#
8ee
8ff#
8dd#
8ee
8ff#
=70
8gg#
8aa
8bb
8aa
8bb
8ccc#
=71
4.gg#
4.gg#
=72
8r
8gg#
8gg#
4.aa
=73
8r
8gg#
8gg#
4.aa
=74
4ccc#
8ccc#
8ccc#
8ccc#
8ccc#
=75
4ccc#
8ccc#
8ccc#
8ccc#
8ccc#
=76
4eee
8eee
8eee
8eee
8eee
=77
4eee
8eee
8eee
8eee
8eee
=78
8eee
8eee
8eee
8eee
8eee
8eee
=79
8eee
8eee
8eee
8eee
8fff#
8fff#
=80
8aaa
8aaa
8aaa
8aaa
8aaa
8aaa
=81
4.aaa
8r
16r
16a
8a
=82
8a
8b
8cc#
4cc#
8cc#
=83
8cc#
8dd
8ee
8ee
8dd
8dd
=84
8.cc#
16b
8b
8dd
8dd
8cc#
=85
8ff#
8ff#
8dd
8.cc#
16b
8b
=86
8.b
16b
8b
8dd
8dd
8cc#
=87
8ff#
8ff#
8dd
8cc#
8b
8b
=88
4.ff#[
8ff#]
8dd#
8cc#
=89
4.bb[
8bb]
8gg#
8ff#
=90
4.eee[
8eee]
8ddd
8ccc#
=91
8bb
8aa
8gg#
8ff#
8ee
8dd
=92
8cc#
8b
8a
8g#
8a
8f#
=93
8e
8a
8c#
8e
8d
8B
=94
8A
8A
8A
8A
8A
8A
=95
8A
8A
8A
8A
8A
8A[
=96
4.A]
4.r
=97
8c#
8c#
8c#
4.e
=98
8e
8e
16a
16cc#
4.ee
=99
8ee
8e
16g
16cc#
4.ee
=100
4a
16dd
16ff#
4.aa
=101
8aa
8a
16dd#
16ff#
4.aa[
=102
8aa]
16cc#
16ee
16aa
16ccc#
16eee
16ccc#
16aa
16ee
16aa
16ee
=103
16eee
16ccc#
16aa
16ee
16aa
16ee
16eee
16ccc#
16aa
16ee
16aa
16ee
=104
16eee
16ccc#
16aa
16ee
16aa
16ee
16eee
16ccc#
16aa
16ee
16aa
16ee
=105
16eee
16ddd
16bb
16ee
16bb
16ee
16eee
16ddd
16bb
16ee
16bb
16ee
=106
16eee
16ddd
16bb
16ee
16bb
16ee
16eee
16ccc#
16aa
16ee
16aa
16ee
=107
16eee
16ccc#
16aa
16ee
16aa
16ee
16eee
16ccc#
16aa
16ee
16aa
16ee
=108
16eee
16ccc#
16aa
16ee
16aa
16ee
16eee
16ccc#
16aa
16ee
16aa
16ee
=109
16eee
16ddd
16bb
16ee
16bb
16ee
16eee
16ddd
16bb
16ee
16bb
16ee
=110
16eee
16ddd
16bb
16ee
16bb
16ee
16eee
16ccc#
16bb
16aa
16bb
16aa
=111
16eee
16ccc#
16bb
16aa
16bb
16aa
16eee
16ccc#
16bb
16aa
16bb
16aa
=112
16eee
16ccc#
16bb
16aa
16bb
16aa
16eee
16ccc#
16bb
16aa
16bb
16aa
=113
16aaa
16fff#
16bb
16aa
16bb
16aa
16aaa
16fff#
16bb
16aa
16bb
16aa
=114
16aaa
16fff#
16bb
16aa
16bb
16aa
16aaa
16fff#
16bb
16aa
16bb
16aa
=115
16aaa
16fff#
16ddd
16aa
16ddd
16aa
16aaa
16fff#
16ddd
16aa
16ddd
16aa
=116
16aaa
16fff#
16ddd
16aa
16ddd
16aa
16aaa
16fff#
16ddd
16aa
16ddd
16aa
=117
16aaa
16eee
16ccc#
16aa
16ccc#
16aa
16fff#
16eee
16fff#
16eee
16fff#
16eee
=118
16aaa
16eee
16ccc#
16aa
16ccc#
16aa
16fff#
16eee
16fff#
16eee
16fff#
16eee
=119
16aaa
16eee
16ccc#
16aa
16ccc#
16aa
16fff#
16eee
16fff#
16eee
16fff#
16eee
=120
16aaa
16eee
16ccc#
16aa
16ccc#
16aa
16fff#
16eee
16fff#
16eee
16fff#
16eee
=121
16aaa
16eee
16ccc#
16aa
16ccc#
16aa
16eee
16ccc#
16bb
16aa
16bb
16aa
=122
16eee
16ccc#
16bb
16aa
16bb
16aa
16eee
16ccc#
16bb
16aa
16bb
16aa
=123
16eee
16ccc#
16bb
16aa
16bb
16aa
16eee
16ccc#
16bb
16aa
16bb
16aa
=124
16eee
16eee
16ccc#
16bb
16bb
16ccc#
16ddd
16eee
16fff#
16ggg#
16aaa
16bbb
=125
4.cccc#
4.r
=126
8c#
4e
4.eee
=127
2.eee
=128
2.eee
=129
4.eee
4.A[
=130
4.A]
4.r
==
*-
